icons/mastodon-fill.svg

<svg viewBox="0 0 24 24" fill="currentColor" xmlns="http://www.w3.org/2000/svg">
    <path d="M21.2595 13.9898C20.9852 15.4006 18.8033 16.9446 16.2974 17.2439C14.9907 17.3998 13.7041 17.5431 12.3321 17.4802C10.0885 17.3774 8.31809 16.9446 8.31809 16.9446C8.31809 17.163 8.33156 17.371 8.3585 17.5655C8.65019 19.7797 10.5541 19.9124 12.3576 19.9742C14.1779 20.0365 15.7987 19.5254 15.7987 19.5254L15.8735 21.1711C15.8735 21.1711 14.6003 21.8548 12.3321 21.9805C11.0814 22.0493 9.52849 21.9491 7.71973 21.4703C3.79684 20.432 3.12219 16.2504 3.01896 12.0074C2.98749 10.7477 3.00689 9.55981 3.00689 8.56632C3.00689 4.22771 5.84955 2.95599 5.84955 2.95599C7.2829 2.29772 9.74238 2.0209 12.2993 2H12.3621C14.919 2.0209 17.3801 2.29772 18.8133 2.95599C18.8133 2.95599 21.6559 4.22771 21.6559 8.56632C21.6559 8.56632 21.6916 11.7674 21.2595 13.9898ZM18.3029 8.9029C18.3029 7.82924 18.0295 6.97604 17.4805 6.34482C16.9142 5.71359 16.1726 5.39001 15.2522 5.39001C14.187 5.39001 13.3805 5.79937 12.8473 6.61819L12.3288 7.48723L11.8104 6.61819C11.2771 5.79937 10.4706 5.39001 9.40554 5.39001C8.485 5.39001 7.74344 5.71359 7.17719 6.34482C6.62807 6.97604 6.3547 7.82924 6.3547 8.9029V14.1562H8.43597V9.05731C8.43597 7.98246 8.88822 7.4369 9.79281 7.4369C10.793 7.4369 11.2944 8.08408 11.2944 9.36376V12.1547H13.3634V9.36376C13.3634 8.08408 13.8646 7.4369 14.8648 7.4369C15.7694 7.4369 16.2216 7.98246 16.2216 9.05731V14.1562H18.3029V8.9029Z"/>
</svg>

<svg xmlns="http://www.w3.org/2000/svg" viewBox="0 0 24 24">
    <g>
        <path fill="none" d="M0 0h24v24H0z"/>
        <path fill-rule="nonzero" d="M21.258 13.99c-.274 1.41-2.456 2.955-4.962 3.254-1.306.156-2.593.3-3.965.236-2.243-.103-4.014-.535-4.014-.535 0 .218.014.426.04.62.292 2.215 2.196 2.347 4 2.41 1.82.062 3.44-.45 3.44-.45l.076 1.646s-1.274.684-3.542.81c-1.25.068-2.803-.032-4.612-.51-3.923-1.039-4.598-5.22-4.701-9.464-.031-1.26-.012-2.447-.012-3.44 0-4.34 2.843-5.611 2.843-5.611 1.433-.658 3.892-.935 6.45-.956h.062c2.557.02 5.018.298 6.451.956 0 0 2.843 1.272 2.843 5.61 0 0 .036 3.201-.397 5.424zm-2.956-5.087c0-1.074-.273-1.927-.822-2.558-.567-.631-1.308-.955-2.229-.955-1.065 0-1.871.41-2.405 1.228l-.518.87-.519-.87C11.276 5.8 10.47 5.39 9.405 5.39c-.921 0-1.663.324-2.229.955-.549.631-.822 1.484-.822 2.558v5.253h2.081V9.057c0-1.075.452-1.62 1.357-1.62 1 0 1.501.647 1.501 1.927v2.79h2.07v-2.79c0-1.28.5-1.927 1.5-1.927.905 0 1.358.545 1.358 1.62v5.1h2.08V8.902z"/>
    </g>
</svg>
